X:1
T:G Major Daniel Read, 1785
T:George Whitefield, 1758 55. 55. 65. 65.
T:Burlington No copyright. Transcribed from The American Singing-Book, 1786.
T:No Copyright.  Transcribed from The American Singing Book, 1786.
T:No Copyright.  Transcribed from The American Singing Book, 1786.
Z:No Copyright.  Transcribed from The American Singing Book, 1786.
%%score [ 1 2 3 4 ]
L:1/8
M:none
K:G
V:1 treble nm="Treble" snm="Tr."
V:2 treble nm="Counter" snm="C."
V:3 treble-8 nm="Tenor" snm="T."
V:4 bass nm="Bass" snm="B."
V:1
 G4 | B4 B2 c2 | B6 G2 | A4 A2 A2 | B6 c2 | d4 d2 c2 | B6 BA | G4 A2 Bc | d6 d2 | d4 d2 c2 | %10
 (B2 A2) G2 A2 | B4 B2 B2 | A6 d2 | B4 B2 BA | G4 F2 A2 | G4 A2 A2 | B8 |] %17
V:2
 D4 | D4 D2 D2 | E6 G2 | D4 D2 D2 | D6 D2 | G4 G2 G2 | G6 G2 | E4 F2 G2 | F6 F2 | G4 G2 G2 | %10
w: 1.~Di-|sci- ples of|Christ, Ye|friends of the|Lamb, At-|tend and as-|sist in|sing- ing His|fame; E-|ter- nal thank-|
 F4 G2 FE | D4 D2 D2 | D6 F2 | G4 D2 D2 | (E2 G2) F2 E2 | D4 D2 D2 | D8 |] %17
w: gi- ving the *|faith- ful should|pay; The|li- ving, the|li- * ving, as|we do this|day.|
V:3
 D4 | G4 G2 A2 | B6 c2 | (d2 c2) B2 A2 | G6 G2 | (B3 A) B2 c2 | d6 B2 | (e2 d2) c2 B2 | A6 A2 | %9
 (B3 A) B2 c2 | (d3 B) G2 F2 | G4 (GF) E2 | D6 D2 | (G3 A) B2 d2 | c4 A2 c2 | B4 A2 A2 | G8 |] %17
V:4
 G,,4 | G,4 G,2 F,2 | E,6 E,2 | D,4 D,2 D,2 | G,,6 G,,2 | G,4 G,2 G,2 | G,6 G,2 | %7
 (C2 B,2) A,2 G,2 | D,6 D,2 | G,4 G,F, E,2 | D,4 E,2 D,2 | G,4 G,,A,, B,,C, | D,6 D,2 | %13
 E,4 D,2 B,,2 | C,4 D,2 E,F, | G,4 D,2 D,2 | G,,8 |] %17

